theme/assets/images/sponsors/sumcumo.svg

<svg height="70.864" width="637.807" xmlns="http://www.w3.org/2000/svg"><path d="m269.292 70.864h14.173v-14.173h-14.173zm42.671 0h42.521v-14.173h-42.521zm-311.963-56.691v28.347h42.52v14.172h-42.52v14.173h56.694v-42.52h-42.521v-14.172zm127.563 0v42.519h-42.523v14.173h56.697v-56.692zm325.992 56.691h14.173v-56.691h-14.173zm-439.382-56.691h42.521v-14.173h-42.521zm56.694 42.518h14.173v-56.691h-14.173zm85.044-56.691v70.864h14.173v-56.691h28.346v56.691h14.173v-56.691h28.342v56.691h14.174v-70.864zm141.878 0v56.691h14.174v-42.518h42.52v-14.173zm127.42 0v56.691h-42.515l-.01-42.519h-14.174l.01 56.691h70.861v-70.863zm42.519 0v14.173h28.349v42.519h14.173v-42.519h28.342v56.691h14.173v-70.864zm99.218 0v70.864h70.861v-56.691h-14.175v42.519h-42.523l.009-42.519h42.512v-14.173z" fill="#fff"/></svg>

<svg xmlns="http://www.w3.org/2000/svg" width="637.807" height="70.864"><path fill="#fff" d="M269.292 70.864h14.173V56.691h-14.173v14.173zm42.671 0h42.521V56.691h-42.521v14.173zM0 14.173V42.52h42.52v14.172H0v14.173h56.694v-42.52H14.173V14.173H0zm127.563 0v42.519H85.04v14.173h56.697V14.173h-14.174zm325.992 56.691h14.173V14.173h-14.173v56.691zM14.173 14.173h42.521V0H14.173v14.173zm56.694 42.518H85.04V0H70.867v56.691zM155.911 0v70.864h14.173V14.173h28.346v56.691h14.173V14.173h28.342v56.691h14.174V0h-99.208zm141.878 0v56.691h14.174V14.173h42.52V0h-56.694zm127.42 0v56.691h-42.515l-.01-42.519H368.51l.01 56.691h70.861V0h-14.172zm42.519 0v14.173h28.349v42.519h14.173V14.173h28.342v56.691h14.173V0h-85.037zm99.218 0v70.864h70.861V14.173h-14.175v42.519h-42.523l.009-42.519h42.512V0h-56.684z"/></svg>
